!!!COM: Music21
!!!OTL: march_Gypsy-Mood
!!!OMV: march_Gypsy-Mood
**kern
*clefG2
*k[f#]
*G:
*M4/4
=1
2B
4e
4f#
=
2g
8f#L
8eJ
4e-X
=
2e
4d
4B
=
2e
8dL
8eJ
4f#
=
2g
8bL
8aJ
4g
=
2dd
4b
4dd
=
2ee
4dd
4b
=
[2dd
2dd]
=
2ee
4dd
4b
=
2a
4g
4a
!!linebreak:original
=
8bL
8ccJ
4b
4a
4g
=
[2e
2e]
=
2g
4B
4g
=
2f#
4e-X
4B
=
4f#
4b
4b
4e-X
=
[2e
2e]
=||
*M4/4
2B
4e
4f#
=
2g
8f#L
8eJ
4e-X
=
2e
4d
4B
!!linebreak:original
=
2e
8dL
8eJ
4f#
=
2g
8bL
8aJ
4g
=
2dd
4b
4dd
=
2ee
4dd
4b
=
[2dd
2dd]
=
2ee
4dd
4b
=
2a
4g
4a
=
8bL
8ccJ
4b
4a
4g
=
[2e
2e]
=
2g
4B
4g
!!linebreak:original
=
2f#
4e-X
4B
=
4f#
4b
4b
4e-X
=
[2e
2e]
=||
4a
4a
4a
4a
=
4a
4g
4e
4g
=
8eL
8gJ
8aL
8bJ
4a
4g
=
[2e
2e]
=
4b
4b
4dd
4b
=
4a
4g
2e
!!linebreak:original
=
4a
4a
8gL
8eJ
4d
=
[2e
2e]
=
4ee
4ee
4gg
4ee
=
4dd
4b
2ee
=
8bL
8ccJ
4b
4a
4g
=
[2b
2b]
=
4ee
4ee
4dd
4b
=
4a
4g
2e
=
4a
4a
8gL
8eJ
4d
!!linebreak:original
=
[2e
2e]
=||
2.b
4g
=
2.b
4g
=
2.ee
4dd
=
[2b
2b]
=
2.a
4g
=
2.e
4d
=
2.e
4d
=
[2e
2e]
=||
2.b
4g
=
2.b
4g
=
2.ee
4dd
!!linebreak:original
=
[2b
2b]
=
2.a
4g
=
2.e
4d
=
2.e
4d
=
[2e
2e]
=||
*-
